build/service/ThumbsUpOutline.svg

<svg xmlns="http://www.w3.org/2000/svg" fill="none" viewBox="0 0 24 24" focusable="false"><path d="M0 0H24V24H0z"/><path fill="#74767B" fill-rule="evenodd" d="M9.71449 10.6807L9.71449 18.6865L16.6808 18.6865C17.4616 18.6865 18.1422 18.1517 18.3318 17.3892L19.6461 12.104C19.915 11.0224 19.1025 9.97451 17.9951 9.97451L15.8447 9.97451C15.4424 9.97451 15.0627 9.7872 14.8162 9.46713C14.5697 9.14705 14.484 8.7302 14.5842 8.33795L15.0136 6.65716C15.0755 6.41477 15.1068 6.16561 15.1068 5.91546L15.1068 5.42838C15.1068 4.80902 14.6081 4.30694 13.9929 4.30694C13.3777 4.30694 12.8789 4.80902 12.8789 5.42838L12.8789 5.52659C12.8789 6.43911 12.5561 7.32182 11.9684 8.01652L9.71449 10.6807ZM8.9021 9.62019L10.9776 7.16696C11.3648 6.70929 11.5774 6.12776 11.5774 5.52659L11.5774 5.42838C11.5774 4.0854 12.6589 2.9967 13.9929 2.9967C15.3269 2.9967 16.4083 4.0854 16.4083 5.42838L16.4083 6.08123C16.4083 6.33138 16.377 6.58055 16.3151 6.82293L15.8447 8.66427L17.9951 8.66427C19.9494 8.66427 21.3832 10.5136 20.9086 12.4222L19.5943 17.7074C19.2598 19.0529 18.0586 19.9967 16.6808 19.9967L5.30149 19.9967C4.5827 19.9967 4 19.4101 4 18.6865L4 10.9304C4 10.2068 4.5827 9.62019 5.30149 9.62019L8.9021 9.62019ZM8.38315 10.9304L8.38312 18.6865L5.30149 18.6865L5.30149 10.9304L8.38315 10.9304Z"/></svg>

<svg xmlns="http://www.w3.org/2000/svg" fill="none" viewBox="0 0 24 24" focusable="false"><path fill="#74767B" fill-rule="evenodd" d="M9.71 10.68v8h6.97c.78 0 1.46-.53 1.65-1.3l1.31-5.28a1.71 1.71 0 0 0-1.65-2.13h-2.15a1.312 1.312 0 0 1-1.26-1.64l.43-1.68c.06-.24.09-.49.09-.74v-.49a1.116 1.116 0 1 0-2.23 0v.1c0 .91-.32 1.8-.91 2.49zM8.9 9.62l2.07-2.46c.39-.46.6-1.04.6-1.64v-.1c0-1.34 1.08-2.43 2.42-2.43 1.33 0 2.41 1.09 2.41 2.43v.66c0 .25-.03.5-.09.74l-.47 1.84h2.15c1.95 0 3.39 1.85 2.91 3.76l-1.31 5.28a3.01 3.01 0 0 1-2.91 2.29H5.3A1.3 1.3 0 0 1 4 18.68v-7.75c0-.73.58-1.31 1.3-1.31zm-.52 1.31v7.75H5.3v-7.75z"/></svg>
